assets/images/icons/showMore.svg

<svg width="17" height="16" viewBox="0 0 17 16" fill="none" xmlns="http://www.w3.org/2000/svg">
<path d="M16.3411 7.98983C16.0804 7.98983 15.8709 8.2015 15.8535 8.46157C15.7555 9.92594 15.1974 11.3282 14.251 12.4695C13.2034 13.7328 11.7448 14.5982 10.1238 14.9181C8.50274 15.238 6.81956 14.9927 5.36107 14.224C3.90258 13.4552 2.75903 12.2106 2.12528 10.7022C1.49153 9.19385 1.4068 7.51502 1.88552 5.95183C2.36424 4.38864 3.3768 3.03782 4.75065 2.12954C6.1245 1.22126 7.77462 0.811742 9.41984 0.970756C11.0651 1.12977 12.6036 1.84748 13.7732 3.00159L15.1831 4.38512H12.4052C12.1453 4.38512 11.9346 4.59581 11.9346 4.85571C11.9346 5.11561 12.1453 5.3263 12.4052 5.3263H16.8121V0.993206C16.8121 0.730141 16.5989 0.516886 16.3358 0.516886C16.0727 0.516886 15.8595 0.730142 15.8595 0.993207V3.71689L14.44 2.34277C13.115 1.03382 11.3714 0.219413 9.50658 0.0383628C7.64175 -0.142688 5.77109 0.320829 4.21346 1.3499C2.65582 2.37897 1.50765 3.9099 0.964641 5.68172C0.421636 7.45354 0.517416 9.35658 1.23565 11.0664C1.95389 12.7763 3.25013 14.1871 4.90341 15.0585C6.55669 15.9298 8.46467 16.2077 10.3021 15.8448C12.1396 15.4818 13.7927 14.5006 14.9798 13.0682C16.066 11.7576 16.7005 10.1437 16.7987 8.46064C16.8139 8.20084 16.6013 7.98983 16.3411 7.98983Z" fill="#0029FF"/>
</svg>

<svg width="17" height="16" fill="none" xmlns="http://www.w3.org/2000/svg"><path d="M16.341 7.99c-.26 0-.47.211-.488.472a7.012 7.012 0 01-1.602 4.008 7.16 7.16 0 01-4.127 2.448 7.222 7.222 0 01-4.763-.694 7.09 7.09 0 01-3.236-3.522 6.98 6.98 0 01-.24-4.75A7.066 7.066 0 014.752 2.13a7.212 7.212 0 019.022.872l1.41 1.383h-2.778a.47.47 0 100 .941h4.407V.993a.476.476 0 10-.953 0v2.724l-1.42-1.374A8.174 8.174 0 004.213 1.35 8.009 8.009 0 00.965 5.682a7.91 7.91 0 00.27 5.384 8.036 8.036 0 003.668 3.992 8.185 8.185 0 005.4.787 8.115 8.115 0 004.677-2.777 7.945 7.945 0 001.819-4.607.45.45 0 00-.458-.471z" fill="#0029FF"/></svg>
